X:0585
T:A Favourite Ballad from Robin Hood
M:3/4
L:1/8
Q:1/4=100 "Moderato"
I: ||
Z:Jack Campin * www.campin.me.uk * 2009
K:G
DGB|   d2  B2  ce | A3  c BG |E2 FG    AF    | D3
DGB|   d2  B2 ^ce | g3  g fd |B2^cd {f}e{d}^c| d3
ddc|{c}B3   A  G^F| E3 ^G AB |c2 Be {d}c{B}A |HG2HF
DGA|{c}B3{A}G  cd |He4    d>c|Bc dG {B}A{G}F | G3|]

